app/assets/svgs/medium.svg

<?xml version="1.0" encoding="UTF-8" standalone="no"?>
<svg width="76px" height="60px" viewBox="0 0 76 60" version="1.1" xmlns="http://www.w3.org/2000/svg" xmlns:xlink="http://www.w3.org/1999/xlink">
    <!-- Generator: Sketch 3.7.2 (28276) - http://www.bohemiancoding.com/sketch -->
    <title>medium</title>
    <desc>Created with Sketch.</desc>
    <defs></defs>
    <g id="Page-1" stroke="none" stroke-width="1" fill="none" fill-rule="evenodd">
        <path d="M75.006317,8.75073699 L72.0398172,8.75073699 C70.9384745,8.75073699 69.3808432,10.3396208 69.3808432,11.3565814 L69.3808432,48.2228114 C69.3808432,49.2410222 70.9384745,50.629264 72.0398172,50.629264 L75.006317,50.629264 L75.006317,59.3800011 L48.1290535,59.3800011 L48.1290535,50.629264 L53.7545273,50.629264 L53.7545273,11.8760002 L53.4788791,11.8760002 L40.3421476,59.3800011 L30.171916,59.3800011 L17.204574,11.8760002 L16.8764213,11.8760002 L16.8764213,50.629264 L22.5018951,50.629264 L22.5018951,59.3800011 L0,59.3800011 L0,50.629264 L2.88149268,50.629264 C4.06784258,50.629264 5.62547378,49.2410222 5.62547378,48.2228114 L5.62547378,11.3565814 C5.62547378,10.3396208 4.06784258,8.75073699 2.88149268,8.75073699 L0,8.75073699 L0,0 L28.1373697,0 L37.3756478,34.3778952 L37.6300443,34.3778952 L46.9533295,0 L75.006317,0 L75.006317,8.75073699 L41.2994032,34.1685103" id="Shape" fill="#FFFFFF"></path>
    </g>
</svg>

<svg width="76" height="60" viewBox="0 0 76 60" xmlns="http://www.w3.org/2000/svg"><title>medium</title><path d="M75.006 8.75H72.04c-1.102 0-2.66 1.59-2.66 2.607v36.866c0 1.018 1.558 2.406 2.66 2.406h2.966v8.751H48.13v-8.75h5.626V11.875h-.276L40.342 59.38h-10.17L17.205 11.876h-.329v38.753h5.626v8.751H0v-8.75h2.881c1.187 0 2.744-1.389 2.744-2.407V11.357c0-1.017-1.557-2.606-2.744-2.606H0V0h28.137l9.239 34.378h.254L46.953 0h28.053v8.75L41.3 34.17" fill="#FFF" fill-rule="evenodd"/></svg>
